X: 5525
T: Burning Of Auchindoun
R: strathspey
M: 4/4
K: Edorian
E/|E>B B>A B<B E2|G>G F2 (ED) B,>E|E2 B<B AA B>A|G>E F>D E2 E2|
B>B d2 c>c B2|E>B B>B (A<F) D>E|E2 B2 A<A B2|G>E F>D E2 E2||
B2 d>d c<A B2|E>B B<B (A<F) D2|E2 B2 A<A B>A|G>E (F<D) E2 E3/2||

